F[BALLADE
CUT[Der Tannhaeuser
    Es wollt ein Suender reisen]
CNR[wohl hin in die Romastat,]
REG[Mitteleuropa, Oesterreich, Kaernten, Friesach]
SRC[1, S. 151
    1920 aufgezeichnet]
KEY[Q0015D 08  G 4/4]
MEL[-5_  1_1_2_2_  3_5_2_
    3_  4_223_1_  2__0_
    6_  5_3_2_1_  -7_2_1_
    2_  333_2_-7_  1__0_ //] >>
FCT[Ballade, Wallfahrt, religioes]
